public/images/2.svg

<svg width="55" height="130" viewBox="0 0 55 130" fill="none" xmlns="http://www.w3.org/2000/svg">
<path id="2" d="M0.120117 130V112.72L33.2401 50.2598C34.9201 47.1398 35.8801 44.4398 36.1201 42.1598C36.3601 39.7598 36.4801 36.8198 36.4801 33.3398C36.4801 31.7798 36.4201 30.1598 36.3001 28.4798C36.3001 26.6798 36.0001 25.1198 35.4001 23.7998C34.8001 22.4798 33.9001 21.3998 32.7001 20.5598C31.5001 19.5998 29.7601 19.1198 27.4801 19.1198C24.7201 19.1198 22.5001 19.8998 20.8201 21.4598C19.2601 23.0198 18.4801 25.2998 18.4801 28.2998V38.7398H0.120117V28.6598C0.120117 24.8198 0.840117 21.2198 2.28012 17.8598C3.72012 14.4998 5.70012 11.5598 8.22012 9.03977C10.6201 6.51977 13.5001 4.53977 16.8601 3.09977C20.2201 1.53977 23.8201 0.759766 27.6601 0.759766C32.4601 0.759766 36.5401 1.65977 39.9001 3.45977C43.3801 5.13977 46.2601 7.47977 48.5401 10.4798C50.7001 13.4798 52.2601 16.8998 53.2201 20.7398C54.3001 24.5798 54.8401 28.6598 54.8401 32.9798C54.8401 36.0998 54.7801 38.7398 54.6601 40.8998C54.5401 42.9398 54.3001 44.9198 53.9401 46.8398C53.5801 48.7598 52.9801 50.6798 52.1401 52.5998C51.3001 54.5198 50.1601 56.8598 48.7201 59.6198L21.7201 111.64H54.8401V130H0.120117Z" fill="#2D78E8" fill-opacity="0.11"/>
</svg>

<svg xmlns="http://www.w3.org/2000/svg" width="55" height="130" fill="none"><path fill="#2D78E8" fill-opacity=".11" d="M.12 130v-17.28l33.12-62.46c1.68-3.12 2.64-5.82 2.88-8.1.24-2.4.36-5.34.36-8.82 0-1.56-.06-3.18-.18-4.86 0-1.8-.3-3.36-.9-4.68-.6-1.32-1.5-2.4-2.7-3.24-1.2-.96-2.94-1.44-5.22-1.44-2.76 0-4.98.78-6.66 2.34-1.56 1.56-2.34 3.84-2.34 6.84v10.44H.12V28.66c0-3.84.72-7.44 2.16-10.8 1.44-3.36 3.42-6.3 5.94-8.82 2.4-2.52 5.28-4.5 8.64-5.94C20.22 1.54 23.82.76 27.66.76c4.8 0 8.88.9 12.24 2.7 3.48 1.68 6.36 4.02 8.64 7.02 2.16 3 3.72 6.42 4.68 10.26 1.08 3.84 1.62 7.92 1.62 12.24 0 3.12-.06 5.76-.18 7.92-.12 2.04-.36 4.02-.72 5.94-.36 1.92-.96 3.84-1.8 5.76-.84 1.92-1.98 4.26-3.42 7.02l-27 52.02h33.12V130H.12Z"/></svg>
